Obsidian-SemiLight/actions/16s/mail-tagged.svg

<svg viewBox="0 0 16 16" xmlns="http://www.w3.org/2000/svg"><path d="m1 2v12h8v-1h-6.34375l3.9863281-4.6503906 1.3574219 1.3574218c-.013148-.0236699 6-6 6-6v4.2929688h1v-6zm1.7070312 1h10.5859378l-5.292969 5.2929688zm-.7070312.7070312 3.9335938 3.9335938-3.9335938 4.589844zm8 5.2929688v1.666016l3.333984 3.333984 1.666016-1.666016-3.333984-3.333984z" fill="#4d4d4d"/></svg>

<svg xmlns="http://www.w3.org/2000/svg" viewBox="0 0 16 16">
  <defs id="defs3051">
    <style type="text/css" id="current-color-scheme">
      .ColorScheme-Text {
        color:#4d4d4d;
      }
      </style>
  </defs>
 <path style="fill:currentColor;fill-opacity:1;stroke:none" 
     d="M 1 2 L 1 14 L 9 14 L 9 13 L 2.65625 13 L 6.6425781 8.3496094 L 8 9.7070312 C 7.986852 9.6833613 14 3.7070312 14 3.7070312 L 14 8 L 15 8 L 15 2 L 1 2 z M 2.7070312 3 L 13.292969 3 L 8 8.2929688 L 2.7070312 3 z M 2 3.7070312 L 5.9335938 7.640625 L 2 12.230469 L 2 3.7070312 z M 10 9 L 10 10.666016 L 13.333984 14 L 15 12.333984 L 11.666016 9 L 10 9 z "
     class="ColorScheme-Text"
     />
</svg>
